assets/3rd place medal/Flat/3rd_place_medal_flat.svg

<svg width="32" height="32" viewBox="0 0 32 32" fill="none" xmlns="http://www.w3.org/2000/svg">
<path d="M18.7678 11.51L13.5478 2.93001C13.2078 2.35001 12.5978 2 11.9278 2H10.2678H9.8878H5.6878H5.3378C3.8878 2 2.9778 3.56001 3.6878 4.82001C5.0078 7.15001 6.8678 9.14001 9.1178 10.6C9.8778 11.19 10.8178 11.51 11.7878 11.51H18.7678Z" fill="#0074BA"/>
<path d="M26.6578 2H26.3078H22.1078H21.7278H20.0678C19.3978 2 18.7878 2.35001 18.4478 2.93001L13.2278 11.51H20.2178C21.1878 11.51 22.1178 11.19 22.8878 10.6C25.1378 9.14001 26.9978 7.16001 28.3178 4.82001C29.0178 3.56001 28.1078 2 26.6578 2Z" fill="#00A6ED"/>
<path d="M15.9901 30C21.535 30 26.0301 25.393 26.0301 19.71C26.0301 14.027 21.535 9.41998 15.9901 9.41998C10.4451 9.41998 5.95007 14.027 5.95007 19.71C5.95007 25.393 10.4451 30 15.9901 30Z" fill="#D3883E"/>
<path d="M16 28.7599C13.64 28.7599 11.42 27.8199 9.76004 26.1099C8.09004 24.3999 7.17004 22.1299 7.17004 19.7099C7.17004 17.2899 8.09004 15.0199 9.76004 13.3099C13.2 9.77991 18.8 9.77991 22.25 13.3099C25.69 16.8399 25.69 22.5799 22.25 26.1099C20.57 27.8199 18.35 28.7599 16 28.7599ZM15.99 11.8899C14.04 11.8899 12.08 12.6499 10.6 14.1799C9.16004 15.6599 8.37004 17.6199 8.37004 19.7099C8.37004 21.7999 9.16004 23.7599 10.6 25.2399C12.04 26.7199 13.96 27.5299 15.99 27.5299C18.03 27.5299 19.94 26.7199 21.38 25.2399C24.35 22.1899 24.35 17.2299 21.38 14.1799C19.9 12.6499 17.95 11.8899 15.99 11.8899Z" fill="#F3AD61"/>
<path d="M17.4021 18.2746L18.4496 16.4644C18.6225 16.1593 18.6225 15.7932 18.4496 15.4881C18.2767 15.183 17.9513 15 17.6055 15H14.514C13.975 15 13.5377 15.4373 13.5377 15.9763C13.5377 16.5152 13.975 16.9525 14.514 16.9525H15.9174L15.1648 18.2644C15.0326 18.4271 14.9513 18.6407 14.9513 18.8644C14.9513 19.4034 15.3886 19.8407 15.9276 19.8407C16.5377 19.8407 17.036 20.339 17.036 20.9491C17.036 21.5593 16.5377 22.0576 15.9276 22.0576C15.4598 22.0576 15.0428 21.7627 14.8903 21.3254C14.7072 20.817 14.1581 20.5627 13.6496 20.7356C13.1411 20.9186 12.8767 21.4678 13.0597 21.9763C13.497 23.1865 14.6462 24 15.9276 24C17.6055 24 18.9784 22.6373 18.9784 20.9491C18.9682 19.7898 18.3377 18.7932 17.4021 18.2746Z" fill="#402A32"/>
</svg>

<svg xmlns="http://www.w3.org/2000/svg" width="32" height="32" fill="none"><path fill="#0074BA" d="m18.768 11.51-5.22-8.58c-.34-.58-.95-.93-1.62-.93h-6.59c-1.45 0-2.36 1.56-1.65 2.82a16.7 16.7 0 0 0 5.43 5.78c.76.59 1.7.91 2.67.91h6.98Z"/><path fill="#00A6ED" d="M26.658 2h-6.59c-.67 0-1.28.35-1.62.93l-5.22 8.58h6.99c.97 0 1.9-.32 2.67-.91 2.25-1.46 4.11-3.44 5.43-5.78.7-1.26-.21-2.82-1.66-2.82Z"/><path fill="#D3883E" d="M15.99 30c5.545 0 10.04-4.607 10.04-10.29 0-5.683-4.495-10.29-10.04-10.29-5.545 0-10.04 4.607-10.04 10.29C5.95 25.393 10.445 30 15.99 30Z"/><path fill="#F3AD61" d="M16 28.76c-2.36 0-4.58-.94-6.24-2.65a9.098 9.098 0 0 1-2.59-6.4c0-2.42.92-4.69 2.59-6.4a8.69 8.69 0 0 1 12.49 0c3.44 3.53 3.44 9.27 0 12.8-1.68 1.71-3.9 2.65-6.25 2.65Zm-.01-16.87c-1.95 0-3.91.76-5.39 2.29a7.873 7.873 0 0 0-2.23 5.53c0 2.09.79 4.05 2.23 5.53a7.476 7.476 0 0 0 5.39 2.29c2.04 0 3.95-.81 5.39-2.29 2.97-3.05 2.97-8.01 0-11.06a7.46 7.46 0 0 0-5.39-2.29Z"/><path fill="#402A32" d="m17.402 18.275 1.048-1.81a.984.984 0 0 0 0-.977.97.97 0 0 0-.845-.488h-3.091a.977.977 0 0 0 0 1.953h1.403l-.752 1.311a.96.96 0 0 0-.214.6c0 .54.438.977.977.977.61 0 1.108.498 1.108 1.108 0 .61-.498 1.109-1.108 1.109-.468 0-.885-.295-1.038-.733a.975.975 0 0 0-1.24-.59.966.966 0 0 0-.59 1.241A3.06 3.06 0 0 0 15.928 24a3.053 3.053 0 0 0 3.05-3.05 3.071 3.071 0 0 0-1.576-2.675Z"/></svg>
